Simply-Cyan-Circles/scalable/apps/bomi.svg

<svg xmlns="http://www.w3.org/2000/svg" width="48" height="48" viewBox="0 0 12.7 12.7"><path d="M6.35.06a6.29 6.29 0 0 0-3.02.77 6.29 6.29 0 0 0-.53.33 6.29 6.29 0 0 0-.5.38 6.29 6.29 0 0 0-.46.43 6.29 6.29 0 0 0-.42.47 6.29 6.29 0 0 0-.36.51 6.29 6.29 0 0 0-1 3.4 6.29 6.29 0 0 0 6.29 6.29 6.29 6.29 0 0 0 3.02-.77 6.29 6.29 0 0 0 .53-.33 6.29 6.29 0 0 0 .5-.38 6.29 6.29 0 0 0 .46-.43 6.29 6.29 0 0 0 .42-.47 6.29 6.29 0 0 0 .36-.51 6.29 6.29 0 0 0 1-3.4A6.29 6.29 0 0 0 6.35.06zM6.33 1a5.4 5.4 0 0 1 5.4 5.4 5.4 5.4 0 0 1-5.4 5.41 5.4 5.4 0 0 1-5.4-5.4 5.4 5.4 0 0 1 2.95-4.82V9.3c0 .13.1.23.22.23h.8c.12 0 .23-.1.23-.23V1.14A5.4 5.4 0 0 1 6.33 1zm-.39 2.9a.33.38 0 0 0-.3.39V9.18a.33.38 0 0 0 .5.33L7.97 8.3 9.8 7.07a.33.38 0 0 0 0-.67L7.97 5.18 6.14 3.95a.33.38 0 0 0-.16-.05.33.38 0 0 0-.04 0z" fill="#5beedc"/></svg>

<?xml version="1.0" encoding="UTF-8" standalone="no"?>
<svg
   xmlns:dc="http://purl.org/dc/elements/1.1/"
   xmlns:cc="http://creativecommons.org/ns#"
   xmlns:rdf="http://www.w3.org/1999/02/22-rdf-syntax-ns#"
   xmlns:svg="http://www.w3.org/2000/svg"
   xmlns="http://www.w3.org/2000/svg"
   xmlns:sodipodi="http://sodipodi.sourceforge.net/DTD/sodipodi-0.dtd"
   xmlns:inkscape="http://www.inkscape.org/namespaces/inkscape"
   width="48"
   height="48"
   viewBox="0 0 12.7 12.7"
   version="1.1"
   id="svg4"
   sodipodi:docname="bomi.svg"
   inkscape:version="0.92.4 (5da689c313, 2019-01-14)">
  <metadata
     id="metadata10">
    <rdf:RDF>
      <cc:Work
         rdf:about="">
        <dc:format>image/svg+xml</dc:format>
        <dc:type
           rdf:resource="http://purl.org/dc/dcmitype/StillImage" />
        <dc:title></dc:title>
      </cc:Work>
    </rdf:RDF>
  </metadata>
  <defs
     id="defs8" />
  <sodipodi:namedview
     pagecolor="#ffffff"
     bordercolor="#666666"
     borderopacity="1"
     objecttolerance="10"
     gridtolerance="10"
     guidetolerance="10"
     inkscape:pageopacity="0"
     inkscape:pageshadow="2"
     inkscape:window-width="1087"
     inkscape:window-height="480"
     id="namedview6"
     showgrid="false"
     inkscape:zoom="4.9166667"
     inkscape:cx="2.1355932"
     inkscape:cy="24"
     inkscape:window-x="0"
     inkscape:window-y="25"
     inkscape:window-maximized="0"
     inkscape:current-layer="svg4" />
  <path
     d="M 6.35,0.06 A 6.29,6.29 0 0 0 3.33,0.83 6.29,6.29 0 0 0 2.8,1.16 6.29,6.29 0 0 0 2.3,1.54 6.29,6.29 0 0 0 1.84,1.97 6.29,6.29 0 0 0 1.42,2.44 6.29,6.29 0 0 0 1.06,2.95 a 6.29,6.29 0 0 0 -1,3.4 6.29,6.29 0 0 0 6.29,6.29 6.29,6.29 0 0 0 3.02,-0.77 6.29,6.29 0 0 0 0.53,-0.33 6.29,6.29 0 0 0 0.5,-0.38 6.29,6.29 0 0 0 0.46,-0.43 6.29,6.29 0 0 0 0.42,-0.47 6.29,6.29 0 0 0 0.36,-0.51 6.29,6.29 0 0 0 1,-3.4 A 6.29,6.29 0 0 0 6.35,0.06 Z M 6.33,1 a 5.4,5.4 0 0 1 5.4,5.4 5.4,5.4 0 0 1 -5.4,5.41 5.4,5.4 0 0 1 -5.4,-5.4 5.4,5.4 0 0 1 2.95,-4.82 V 9.3 c 0,0.13 0.1,0.23 0.22,0.23 h 0.8 c 0.12,0 0.23,-0.1 0.23,-0.23 V 1.14 A 5.4,5.4 0 0 1 6.33,1 Z M 5.94,3.9 a 0.33,0.38 0 0 0 -0.3,0.39 v 4.89 a 0.33,0.38 0 0 0 0.5,0.33 L 7.97,8.3 9.8,7.07 A 0.33,0.38 0 0 0 9.8,6.4 L 7.97,5.18 6.14,3.95 A 0.33,0.38 0 0 0 5.98,3.9 0.33,0.38 0 0 0 5.94,3.9 Z"
     id="path2"
     inkscape:connector-curvature="0"
     style="fill:#5beedc" />
</svg>
